X:1
T:Star of Beauty
T:Daniel Brink Towner
T:Star of Beauty
T:Public Domain
T:Public Domain
C:Daniel Brink Towner
Z:Public Domain
%%score ( 1 2 ) ( 3 4 )
L:1/8
M:6/8
K:A
V:1 treble 
V:2 treble 
V:3 bass 
V:4 bass 
V:1
 ([CE][DF])[CE] [Ec]2 [CA] | ([CE][^B,^D])[=DF] [CE]2 [CA] | [DG]2 [DB] [DF]2 [DG] | %3
w: 1.~Star * of beau- ty,|Bethle- * hem’s star, We|fol- low, fol- low|
w: 2.~Star * of beau- ty,|star * of joy, We|fol- low, fol- low|
w: 3.~Star * that guides to|Je- * sus still, We|fol- low, fol- low|
 ([DF]3 [CE]3) | ([CE][DF])[CE] [Ec]2 [CA] | ([CE][^B,^D])[=DF] [CE]2 [CA] | %6
w: on! *|Lead- * ing pil- grims|from * a- far, We|
w: on; *|Shine * for ev- ery|girl * and boy, We|
w: on; *|March- * ing up to|Zi- * on’s hill, We|
 [DG]2 [DB] [DF]2 [DG] | [CA]6 | [GB]2 [GB] [GB]2 [EG] | ([GB][FA])[^DF] [EG]3 | %10
w: fol- low, fol- low|on.|While the her- ald|an- * gels sing,|
w: fol- low, fol- low|on.|God’s own Word our|light * shall be,|
w: fol- low, fol- low|on.|Ev- ery Bi- ble|word * we learn,|
 [GB]2 [GB] [GB]2 [EG] | ([GB][FA])[^DF] (E=DB,) | ([A,C][CE])[CA] [Ec]2 [DB] | %13
w: We may find the|Sav- * ior King, * *|and * praise and glad-|
w: Till the heaven- ly|Child * we see; * *|for * o- thers, shine|
w: Like a star will|bright- * ly burn, * *|our * hearts to Je-|
 ([CA][EG])[DF] [CE]2 [CA] | [EG]2 [Ed] [DF]2 [DG] | [CA]6 ||"^Refrain" [Ec]3 [CA]3 | %17
w: ness * bring; We fol-|low, fol- low on.|||
w: for * me; We fol-|low, fol- low on.|Star,|star, beau-|
w: sus * turn; We fol-|low, fol- low on.|||
 [CE][^B,^D][=DF] [CE]2 [CA] | [EG]2 [Ed] [DF]2 [DG] | ([DF]3 [CE]3) | [Ec]3 (C2 E) | %21
w: ||||
w: ti- ful star, We fol-|low, fol- low on;|Star, *|star, won- *|
w: ||||
 [=GA][GB][Gc] [Fd]2 [^B,F] | [CE]2 [Ed] [Ec]2 [DB] | [CA]6 |] %24
w: |||
w: ful star, We fol- low,|fol- low on. *||
w: |||
V:2
 x6 | x6 | x6 | x6 | x6 | x6 | x6 | x6 | x6 | x6 | x6 | x3 E3 | x6 | x6 | x6 | x6 || x6 | x6 | x6 | %19
w: |||||||||||Love||||||||
w: |||||||||||Shine||||||||
w: |||||||||||Till||||||||
 x6 | x3 A3 | x6 | x6 | x6 |] %24
w: |||||
w: |der-||||
w: |||||
V:3
 [A,,A,]2 [A,,A,] [A,,A,]2 [A,,A,] | [A,,A,]2 [A,,A,] [A,,A,]2 [A,,A,] | %2
 [E,B,]2 [E,G,] [E,G,]2 [E,B,] | [A,,A,]6 | [A,,A,]2 [A,,A,] [A,,A,]2 [A,,A,] | %5
 [A,,A,]2 [A,,A,] [A,,A,]2 [A,,A,] | [E,B,]2 [E,G,] [E,G,]2 E, | [A,,E,]6 | E,2 E, E,2 E, | %9
 (E,B,)[B,,B,] [E,B,]3 | [E,B,]2 [E,B,] [E,B,]2 [E,B,] | [B,,B,]2 [B,,B,] [E,G,]3 | %12
 [A,,A,]2 [A,,A,] [A,,A,]2 [A,,A,] | (E,A,)[A,,A,] [A,,A,]2 [A,,A,] | [E,B,]2 [E,G,] [E,G,]2 E, | %15
 [A,,E,]6 || [A,,A,]3 [A,,E,]3 | [A,,A,][A,,A,][A,,A,] [A,,A,]2 [A,,A,] | %18
 [E,B,]2 [E,G,] [E,G,]2 [E,B,] | [A,,A,]6 | [A,,A,]3 (A,2 C) | [A,E][A,C]A, [D,A,]2 [^D,A,] | %22
 [E,A,]2 [E,B,] [E,A,]2 E, | [A,,E,]6 |] %24
V:4
 x6 | x6 | x6 | x6 | x6 | x6 | x5 E, | x6 | E,2 E, E,2 E, | B,,2 x4 | x6 | x6 | x6 | A,,2 x4 | %14
 x5 E, | x6 || x6 | x6 | x6 | x6 | x3 A,,3 | x2 A, x3 | x5 E, | x6 |] %24

